X: 1
T:Kristian's Hambo
R:Hambo
O:Sweden
M:3/4
A:J\"amtland
K:G
(3d^cd g>B d2 | (3cBc e>c A>G | \
F>G A>c B>A |1 G>F G>B d>B :|2 G2 G3 ::\
K:D
A | \
a>A a>A a>A | b>a f2 f2 | \
a>g e2 (3efg | b>a f2 f>A |\
a>A a>A a>A | b>a f2 f2 | \
a>g e>c (3ABc | d2 d3 :|
